!!!COM: Bach, Johann Sebastian
!!!OPR: Joh. Seb. Bachs vierstimmige Choralgesänge
!!!XEN: Four-part Chorales
!!!OTL: 92. Ich bin ja, Herr, in deiner Macht
!!!SCT: BWV 345
!!!SCA: Thematisch-systematisches Verzeichnis der musikalischen Werke Johann Sebastian Bach: Bach-Werke-Verzeichnis (Schmieder)
!!!YOR: Bach Gesellschaft Edition xxxix
!!!ENC: Steven Rasmussen
!!!CDT: 1685/3//-1750/7/28/
!!!OCY: Deutschland
!!!YEC: Copyright (c) 1994, 2000 Center for Computer Assisted Research in the Humanities
!!!YEM: Rights to all derivative editions reserved
!!!YEN: United States of America
**kern	**kern	**kern	**silbe	**kern	**silbe
*I:[BASSO]	*I:[TENORE]	*I:[ALTO]	*I:[ALTO]	*I:[SOPRANO]	*I:[SOPRANO]
*>[A,A,B]	*>[A,A,B]	*>[A,A,B]	*	*>[A,A,B]	*
*>A	*>A	*>A	*	*>A	*
*clefF4	*clefGv2	*clefG2	*	*clefG2	*
*k[b-e-]	*k[b-e-]	*k[b-e-]	*	*k[b-e-]	*
*g:	*g:	*g:	*	*g:	*
*M4/4	*M4/4	*M4/4	*	*M4/4	*
4G	4B-	4d	.	4g	Ichdu
=1	=1	=1	=1	=1	=1
4G	8cL	4e-	.	4a	binken-
.	8B-J	.	.	.	.
4F#	4A	4d	.	8aL	ja,-nest
.	.	.	.	16b-L	.
.	.	.	.	16ccJJ	.
4.G	4.G	4.d	Herr,mei-	8b-	Herr,mei-
.	.	.	.	8g	in-ner
.	.	.	.	[4dd	dei-Mon-
8Fn	8A	8d	in-ner	.	.
=2	=2	=2	=2	=2	=2
8E-L	4B-	4g	dei-Mon-	8ddL]	.
8DJ	.	.	.	16ccL	.
.	.	.	.	16b-J	.
8E-L	8cL	8f#L	-ner-den	8aJ	.
8CJ	8B-J	8gJ	.	8g	-ner-den
4D;	4A;	4d;	.	4f#;	Macht,Zahl,
4D	4d	4f#	.	4a	duweisst,
=3	=3	=3	=3	=3	=3
4G	4d	4g	.	4b-	hastwann
4A	4c	4f	.	8ccL	michich
.	.	.	.	16ddL	.
.	.	.	.	16ee-JJ	.
4.B-	4.B-	4.f	andie-	8dd	andie-
.	.	.	.	8b-	das-sem
.	.	.	.	[4ff	LichtJam-
8A	8c	8f	das-sem	.	.
=4	=4	=4	=4	=4	=4
8GL	4d	4b-	LichtJam-	8ffL]	.
8FJ	.	.	.	16eenL	.
.	.	.	.	16ddJ	.
8EnL	8GL	8ccL	ge--mer-	8ccJ	.
8CJ	8cJ	8enJ	.	8b-	ge--mer-
4F;	4c;	4f;	-bracht-tal	4a;	-bracht-tal
4B-	4B-	4f	.	4dd	undauch
=5	=5	=5	=5	=5	=5
4En	4B-	4g	.	4cc#	duwie-
4F	4A	4f	.	4dd	er--der
8C#	8A	8en	.	8een	-hÃ¤ltstgu-
8C#	8A	8e	.	16ffLL	mir-te
.	.	.	.	16ggJJ	.
8D	8A	8d	.	8ff	auchNacht
8D	8d	8d	.	8ee	dassoll
=6	=6	=6	=6	=6	=6
4A	8dL	8enL	.	2eent	Le-ge-
.	16c#L	8fJ	.	.	.
.	16BnJJ	.	.	.	.
4AA	4c#	4g	.	.	.
4D;	4A;	4f#;	.	4dd;	-ben;-ben.
=:|!	=:|!	=:|!	=:|!	=:|!	=:|!
*>B	*>B	*>B	*	*>B	*
4F#	4d	4a	.	4dd	Wo,
=7	=7	=7	=7	=7	=7
4G	4d	4g	.	8b-L	wie
.	.	.	.	8aJ	.
4F	4d	4g	.	8bnL	und
.	.	.	.	8ddJ	.
4.E-	4.c	4.g	wann	8gg	wann
.	.	.	.	8ee-	ich
.	.	.	.	4cc	ster-
8A-	8c	8e-	ich	.	.
=8	=8	=8	=8	=8	=8
8FL	4c	4a-	ster-	8ddL	.
8DJ	.	.	.	8ffJ	.
4G	4Bn	4g	-ben	8ee-L	-ben
.	.	.	.	8ddJ	.
4C;	4c;	4g;	soll,	4ee-;	soll,
4c	4d	4f#	.	4a	das
=9	=9	=9	=9	=9	=9
8B-L	4d	8gL	.	4dd	weisst
8AJ	.	8fJ	.	.	.
8B-L	4c	4en	.	4g	du,
8cJ	.	.	.	.	.
8AL	8cL	8f#L	.	8ccL	Va-
8GJ	8B-J	8gJ	.	16ddL	.
.	.	.	.	16ee-JJ	.
4F#	8AL	4a	.	8ddL	-ter,
.	8dJ	.	.	8ccJ	.
=10	=10	=10	=10	=10	=10
4G	4d	8aL	.	4b-	mehr
.	.	8gJ	.	.	.
4D	8cL	4f#	.	8aL	als
.	8B-J	.	.	8gJ	.
4GG;	4B-;	4d;	.	4g;	wohl.
==|!	==|!	==|!	==|!	==|!	==|!
*-	*-	*-	*-	*-	*-
!!!RWG: Key is interpreted using the Humdrum key tool.
!!!URL-pdf: https://s9.imslp.org/files/imglnks/usimg/6/6b/IMSLP24489-PMLP09471-CCARH_Bach_Chorales.pdf#page=65 Musedata edition
!!!URL-pdf: https://s9.imslp.org/files/imglnks/usimg/7/7a/IMSLP04155-Bach_-_BGA_253-438.pdf#page=49 	Bach-Gesellschaft Ausgabe, Band 39 (pp.175-276) Leipzig: Breitkopf und Härtel, 1892. Plate B.W. XXXIX.
!!!END: 1994/06/27
!!!EMD: Converted from MuseData to Humdrum Dec 19, 2000, by Andreas Kornstaedt using muse2kern.
!!!EED: Craig Stuart Sapp
!!!EEV: 2024/03/31
!!!ONB: Some non-unicode characters
!!!filter-keyboard: satb2gs
